Numix-GalliumOS/22/mimetypes/application-java.svg

<?xml version="1.0" encoding="UTF-8" standalone="no"?>
<svg
   xmlns:dc="http://purl.org/dc/elements/1.1/"
   xmlns:cc="http://creativecommons.org/ns#"
   xmlns:rdf="http://www.w3.org/1999/02/22-rdf-syntax-ns#"
   xmlns:svg="http://www.w3.org/2000/svg"
   xmlns="http://www.w3.org/2000/svg"
   xmlns:sodipodi="http://sodipodi.sourceforge.net/DTD/sodipodi-0.dtd"
   xmlns:inkscape="http://www.inkscape.org/namespaces/inkscape"
   width="22"
   height="22"
   viewBox="0 0 22 22"
   id="svg2"
   version="1.1"
   inkscape:version="0.48.5 r10040"
   sodipodi:docname="application-java.svg">
  <metadata
     id="metadata32">
    <rdf:RDF>
      <cc:Work
         rdf:about="">
        <dc:format>image/svg+xml</dc:format>
        <dc:type
           rdf:resource="http://purl.org/dc/dcmitype/StillImage" />
      </cc:Work>
    </rdf:RDF>
  </metadata>
  <defs
     id="defs30" />
  <sodipodi:namedview
     pagecolor="#ffffff"
     bordercolor="#666666"
     borderopacity="1"
     objecttolerance="10"
     gridtolerance="10"
     guidetolerance="10"
     inkscape:pageopacity="0"
     inkscape:pageshadow="2"
     inkscape:window-width="1280"
     inkscape:window-height="970"
     id="namedview28"
     showgrid="true"
     inkscape:zoom="7.375"
     inkscape:cx="-13.632094"
     inkscape:cy="23.413784"
     inkscape:window-x="0"
     inkscape:window-y="0"
     inkscape:window-maximized="1"
     inkscape:current-layer="svg2">
    <inkscape:grid
       type="xygrid"
       id="grid3020"
       empspacing="5"
       visible="true"
       enabled="true"
       snapvisiblegridlinesonly="true" />
  </sodipodi:namedview>
  <path
     style="fill:#e66f00;fill-opacity:1"
     d="m 4,-5e-7 c -0.472657,0 -1,0.52734403 -1,1.00000003 L 3,21 c 0,0.445312 0.554687,1 1,1 l 14,0 c 0.445313,0 0.992367,-0.554753 1,-1 l 0,-15.0000005 -5.999999,-6 z"
     id="path4"
     inkscape:connector-curvature="0"
     sodipodi:nodetypes="ssssssccs" />
  <path
     style="fill:#000000;fill-opacity:0.19599998"
     d="M 14.000001,5.9999995 19,11 19,5.9999995 z"
     id="path6-4"
     inkscape:connector-curvature="0"
     sodipodi:nodetypes="cccc" />
  <path
     style="fill:#ffffff;fill-opacity:0.39200003"
     d="m 13.000001,-5e-7 5.999999,6 -4.999999,0 c -0.445312,0 -1,-0.554688 -1,-1 z"
     id="path8-7"
     inkscape:connector-curvature="0"
     sodipodi:nodetypes="ccssc" />
  <g
     style="fill:#ffffff;fill-rule:evenodd"
     id="g10"
     transform="matrix(1.9715553,0,0,1.8396194,-4.7439977,-2.8776537)">
    <path
       d="m 7.167969,9.972656 c 0,0 -0.242188,0.132813 0.171875,0.179688 0.503906,0.05469 0.757812,0.04687 1.3125,-0.05469 0,0 0.144531,0.08984 0.347656,0.164063 -1.238281,0.503906 -2.804688,-0.03125 -1.832031,-0.289063"
       id="path12"
       inkscape:connector-curvature="0" />
    <path
       d="m 7.019531,9.316406 c 0,0 -0.273437,0.191406 0.140625,0.230469 0.535156,0.054687 0.960938,0.058594 1.691406,-0.078125 0,0 0.101563,0.097656 0.261719,0.152344 -1.5,0.414062 -3.167969,0.03125 -2.09375,-0.304688"
       id="path14"
       inkscape:connector-curvature="0" />
    <path
       d="m 8.292969,8.203125 c 0.304687,0.332031 -0.078125,0.632813 -0.078125,0.632813 0,0 0.773437,-0.378907 0.417968,-0.855469 C 8.300781,7.539062 8.046875,7.316406 9.425781,6.558594 c 0,0 -2.167969,0.511718 -1.132812,1.644531"
       id="path16"
       inkscape:connector-curvature="0" />
    <path
       d="m 9.933594,10.460938 c 0,0 0.175781,0.136718 -0.199219,0.246093 -0.714844,0.207031 -2.976563,0.269531 -3.601563,0.0078 -0.226562,-0.09375 0.195313,-0.222656 0.328126,-0.25 0.140624,-0.02734 0.21875,-0.02344 0.21875,-0.02344 -0.25,-0.167968 -1.621094,0.332032 -0.695313,0.472656 2.523437,0.390626 4.601563,-0.175781 3.949219,-0.453124"
       id="path18"
       inkscape:connector-curvature="0" />
    <path
       d="m 7.285156,8.636719 c 0,0 -1.148437,0.257812 -0.40625,0.351562 0.3125,0.039063 0.9375,0.03125 1.519532,-0.015625 C 8.875,8.933594 9.351562,8.855469 9.351562,8.855469 9.351562,8.855469 9.183594,8.921875 9.0625,9 7.894531,9.292969 5.640625,9.15625 6.289062,8.859375 6.839844,8.605469 7.285156,8.636719 7.285156,8.636719"
       id="path20"
       inkscape:connector-curvature="0" />
    <path
       d="M 9.347656,9.730469 C 10.535156,9.144531 9.988281,8.582031 9.605469,8.65625 9.511719,8.675781 9.46875,8.691406 9.46875,8.691406 c 0,0 0.035156,-0.050781 0.101562,-0.074218 0.757813,-0.25 1.339844,0.746093 -0.246093,1.140624 0,0 0.019531,-0.015624 0.023437,-0.027343"
       id="path22"
       inkscape:connector-curvature="0" />
    <path
       d="m 8.632812,5.332031 c 0,0 0.65625,0.625 -0.625,1.582031 C 6.980469,7.683594 7.773438,8.125 8.007812,8.625 7.410156,8.113281 6.96875,7.660156 7.265625,7.238281 7.699219,6.625 8.898438,6.324219 8.632812,5.332031"
       id="path24"
       inkscape:connector-curvature="0" />
    <path
       d="m 7.402344,11.316406 c 1.140625,0.06641 2.890625,-0.03906 2.929687,-0.550781 0,0 -0.07813,0.191406 -0.941406,0.347656 -0.972656,0.171875 -2.171875,0.152344 -2.882813,0.04297 0,0 0.144532,0.113281 0.894532,0.160156"
       id="path26"
       inkscape:connector-curvature="0" />
  </g>
</svg>

<svg xmlns="http://www.w3.org/2000/svg" viewBox="0 0 22 22">
 <path d="m 4 0 c -0.473 0 -1 0.527 -1 1 l 0 20 c 0 0.445 0.555 1 1 1 l 14 0 c 0.445 0 0.992 -0.555 1 -1 l 0 -15 -6 -6 z" style="fill:#e66f00;fill-opacity:1"/>
 <path d="m 14 6 5 5 0 -5 z" style="fill:#000;fill-opacity:0.196"/>
 <path d="m 13 0 6 6 -5 0 c -0.445 0 -1 -0.555 -1 -1 z" style="fill:#fff;fill-opacity:0.392"/>
 <g transform="matrix(1.9715553,0,0,1.8396194,-4.7439977,-2.8776537)" style="fill:#fff;fill-rule:evenodd">
  <path d="m 7.168 9.973 c 0 0 -0.242 0.133 0.172 0.18 0.504 0.055 0.758 0.047 1.312 -0.055 0 0 0.145 0.09 0.348 0.164 -1.238 0.504 -2.805 -0.031 -1.832 -0.289"/>
  <path d="m 7.02 9.316 c 0 0 -0.273 0.191 0.141 0.23 0.535 0.055 0.961 0.059 1.691 -0.078 0 0 0.102 0.098 0.262 0.152 -1.5 0.414 -3.168 0.031 -2.094 -0.305"/>
  <path d="m 8.293 8.203 c 0.305 0.332 -0.078 0.633 -0.078 0.633 0 0 0.773 -0.379 0.418 -0.855 c -0.332 -0.441 -0.586 -0.664 0.793 -1.422 c 0 0 -2.168 0.512 -1.133 1.645"/>
  <path d="m 9.934 10.461 c 0 0 0.176 0.137 -0.199 0.246 -0.715 0.207 -2.977 0.27 -3.602 0.008 -0.227 -0.094 0.195 -0.223 0.328 -0.25 0.141 -0.027 0.219 -0.023 0.219 -0.023 -0.25 -0.168 -1.621 0.332 -0.695 0.473 2.523 0.391 4.602 -0.176 3.949 -0.453"/>
  <path d="m 7.285 8.637 c 0 0 -1.148 0.258 -0.406 0.352 0.313 0.039 0.938 0.031 1.52 -0.016 c 0.477 -0.039 0.953 -0.117 0.953 -0.117 0 0 -0.168 0.066 -0.289 0.145 -1.168 0.293 -3.422 0.156 -2.773 -0.141 0.551 -0.254 0.996 -0.223 0.996 -0.223"/>
  <path d="m 9.348 9.73 c 1.188 -0.586 0.641 -1.148 0.258 -1.074 -0.094 0.02 -0.137 0.035 -0.137 0.035 c 0 0 0.035 -0.051 0.102 -0.074 0.758 -0.25 1.34 0.746 -0.246 1.141 0 0 0.02 -0.016 0.023 -0.027"/>
  <path d="m 8.633 5.332 c 0 0 0.656 0.625 -0.625 1.582 c -1.027 0.77 -0.234 1.211 0 1.711 -0.598 -0.512 -1.039 -0.965 -0.742 -1.387 0.434 -0.613 1.633 -0.914 1.367 -1.906"/>
  <path d="m 7.402 11.316 c 1.141 0.066 2.891 -0.039 2.93 -0.551 0 0 -0.078 0.191 -0.941 0.348 -0.973 0.172 -2.172 0.152 -2.883 0.043 0 0 0.145 0.113 0.895 0.16"/>
 </g>
</svg>
